X:972
T:Andy McGann's
R:reel
D:Craobh Rua
Z:id:hn-reel-972
M:C|
L:1/8
K:D
dF~F2 AGFE | DEFD EDB,E | DEFA BFAF | ~E3F EFAc |
[1 dF~F2 AGFE | DEFD EDB,E | DEFA BFAF | EDCE D2Ac :|
[2 ~d3B ~c3A | ~B3d AGFE | DEFA (3Bcd AF | EDCE D2Ac ||
d2fd edfd | ~B3d AGFE | DEFA B2AF | ~E3F EFAc |
d2fd edfd | ~B3d AGFE | DEFA (3Bcd AF | EDCE D2Ac ||
d2fd edfd | ~B3d AGFE | DEFA B2AF | ~E3F EFde |
faba fd~d2 | ~B3d AGFE | DEFA (3Bcd AF | EDCE D3c ||
P:variations
|: dF~F2 AGFE | DEFD EDB,E | ADFA BdAF | ~E3D EFGA |
[1 dF~F2 AGFE | DEFD EDB,E | DEFA (3Bcd AF | EDEF D2Ac :|
[2 d2fd c2ec | BABd AGFE | D2FA BdAF | EDEF D2 (3ABc ||
d2fd edfd | ~B3d AGFE | D2FA BdAF | ~E3D EFGA |
d2fd edfd | ~B3d AGFE | D2FA BdAF | EDEF D2 (3ABc ||
d2fd edfd | ~B3d AGFE | D2FA BdAF | ~E3D E2de |
faba fd~d2 | ~B3d AGFE | D2FA BdAF | EDEF D2 (3ABc ||

